src/apps/scalable/AdobeAnimate.svg

<?xml version="1.0" encoding="UTF-8" standalone="no"?>
<svg
   width="128"
   height="128"
   viewBox="0 0 33.866666 33.866668"
   version="1.1"
   id="svg1594"
   inkscape:version="1.1.2 (0a00cf5339, 2022-02-04)"
   sodipodi:docname="AdobeAnimate.svg"
   xmlns:inkscape="http://www.inkscape.org/namespaces/inkscape"
   xmlns:sodipodi="http://sodipodi.sourceforge.net/DTD/sodipodi-0.dtd"
   xmlns:xlink="http://www.w3.org/1999/xlink"
   xmlns="http://www.w3.org/2000/svg"
   xmlns:svg="http://www.w3.org/2000/svg"
   xmlns:rdf="http://www.w3.org/1999/02/22-rdf-syntax-ns#"
   xmlns:cc="http://creativecommons.org/ns#"
   xmlns:dc="http://purl.org/dc/elements/1.1/">
  <defs
     id="defs1588">
    <linearGradient
       inkscape:collect="always"
       id="linearGradient8386">
      <stop
         style="stop-color:#f18715;stop-opacity:1"
         offset="0"
         id="stop8382" />
      <stop
         style="stop-color:#eb5f23;stop-opacity:1"
         offset="1"
         id="stop8384" />
    </linearGradient>
    <radialGradient
       inkscape:collect="always"
       xlink:href="#linearGradient4675"
       id="radialGradient1506"
       cx="17.080746"
       cy="3.8305573"
       fx="17.080746"
       fy="3.8305573"
       r="14.543719"
       gradientUnits="userSpaceOnUse"
       gradientTransform="matrix(4.5632446,0,0,2.5460647,-60.89037,-5.9756044)" />
    <linearGradient
       id="linearGradient4675"
       inkscape:collect="always">
      <stop
         id="stop4671"
         offset="0"
         style="stop-color:#f28e13;stop-opacity:1" />
      <stop
         id="stop4673"
         offset="1"
         style="stop-color:#e53232;stop-opacity:1" />
    </linearGradient>
    <linearGradient
       inkscape:collect="always"
       xlink:href="#linearGradient2892"
       id="linearGradient2894"
       x1="16.932301"
       y1="5.8012428"
       x2="16.932301"
       y2="29.238325"
       gradientUnits="userSpaceOnUse"
       gradientTransform="translate(-0.02749337,-0.05331497)" />
    <linearGradient
       inkscape:collect="always"
       id="linearGradient2892">
      <stop
         style="stop-color:#151515;stop-opacity:1"
         offset="0"
         id="stop2888" />
      <stop
         style="stop-color:#262626;stop-opacity:1"
         offset="1"
         id="stop2890" />
    </linearGradient>
    <linearGradient
       inkscape:collect="always"
       xlink:href="#linearGradient8386"
       id="linearGradient8388"
       x1="42.120525"
       y1="51.163074"
       x2="84.516701"
       y2="78.314072"
       gradientUnits="userSpaceOnUse" />
  </defs>
  <sodipodi:namedview
     id="base"
     pagecolor="#ffffff"
     bordercolor="#666666"
     borderopacity="1.0"
     inkscape:pageopacity="0.0"
     inkscape:pageshadow="2"
     inkscape:zoom="2.8"
     inkscape:cx="43.928571"
     inkscape:cy="23.571429"
     inkscape:document-units="mm"
     inkscape:current-layer="text1830"
     inkscape:document-rotation="0"
     showgrid="false"
     units="px"
     inkscape:window-width="1514"
     inkscape:window-height="941"
     inkscape:window-x="50"
     inkscape:window-y="32"
     inkscape:window-maximized="0"
     inkscape:pagecheckerboard="0" />
  <metadata
     id="metadata1591">
    <rdf:RDF>
      <cc:Work
         rdf:about="">
        <dc:format>image/svg+xml</dc:format>
        <dc:type
           rdf:resource="http://purl.org/dc/dcmitype/StillImage" />
      </cc:Work>
    </rdf:RDF>
  </metadata>
  <g
     inkscape:label="Capa 1"
     inkscape:groupmode="layer"
     id="layer1">
    <g
       id="g1702"
       transform="matrix(0.97573206,0,0,0.97573206,-65.775878,-37.256411)"
       style="opacity:0.295">
      <rect
         style="fill:none;fill-opacity:1;stroke:#000000;stroke-width:0.1;stroke-linecap:round;stroke-linejoin:round;stroke-miterlimit:4;stroke-dasharray:none;stroke-opacity:0.02"
         id="rect1634"
         width="29.810888"
         height="29.810888"
         x="69.839508"
         y="40.709618"
         rx="6.6098609"
         ry="6.6098609" />
      <rect
         ry="6.6098609"
         rx="6.6098609"
         y="40.709618"
         x="69.839508"
         height="29.810888"
         width="29.810888"
         id="rect1638"
         style="fill:none;fill-opacity:1;stroke:#000000;stroke-width:0.2;stroke-linecap:round;stroke-linejoin:round;stroke-miterlimit:4;stroke-dasharray:none;stroke-opacity:0.02" />
      <rect
         style="fill:none;fill-opacity:1;stroke:#000000;stroke-width:0.3;stroke-linecap:round;stroke-linejoin:round;stroke-miterlimit:4;stroke-dasharray:none;stroke-opacity:0.02"
         id="rect1640"
         width="29.810888"
         height="29.810888"
         x="69.839508"
         y="40.709618"
         rx="6.6098609"
         ry="6.6098609" />
      <rect
         ry="6.6098609"
         rx="6.6098609"
         y="40.709618"
         x="69.839508"
         height="29.810888"
         width="29.810888"
         id="rect1642"
         style="fill:none;fill-opacity:1;stroke:#000000;stroke-width:0.4;stroke-linecap:round;stroke-linejoin:round;stroke-miterlimit:4;stroke-dasharray:none;stroke-opacity:0.02" />
      <rect
         style="fill:none;fill-opacity:1;stroke:#000000;stroke-width:0.5;stroke-linecap:round;stroke-linejoin:round;stroke-miterlimit:4;stroke-dasharray:none;stroke-opacity:0.02"
         id="rect1644"
         width="29.810888"
         height="29.810888"
         x="69.839508"
         y="40.709618"
         rx="6.6098609"
         ry="6.6098609" />
      <rect
         ry="6.6098609"
         rx="6.6098609"
         y="40.709618"
         x="69.839508"
         height="29.810888"
         width="29.810888"
         id="rect1646"
         style="fill:none;fill-opacity:1;stroke:#000000;stroke-width:0.6;stroke-linecap:round;stroke-linejoin:round;stroke-miterlimit:4;stroke-dasharray:none;stroke-opacity:0.02" />
      <rect
         style="fill:none;fill-opacity:1;stroke:#000000;stroke-width:0.7;stroke-linecap:round;stroke-linejoin:round;stroke-miterlimit:4;stroke-dasharray:none;stroke-opacity:0.02"
         id="rect1648"
         width="29.810888"
         height="29.810888"
         x="69.839508"
         y="40.709618"
         rx="6.6098609"
         ry="6.6098609" />
      <rect
         ry="6.6098609"
         rx="6.6098609"
         y="40.709618"
         x="69.839508"
         height="29.810888"
         width="29.810888"
         id="rect1650"
         style="fill:none;fill-opacity:1;stroke:#000000;stroke-width:0.8;stroke-linecap:round;stroke-linejoin:round;stroke-miterlimit:4;stroke-dasharray:none;stroke-opacity:0.02" />
      <rect
         style="fill:none;fill-opacity:1;stroke:#000000;stroke-width:1;stroke-linecap:round;stroke-linejoin:round;stroke-miterlimit:4;stroke-dasharray:none;stroke-opacity:0.02"
         id="rect1652"
         width="29.810888"
         height="29.810888"
         x="69.839508"
         y="40.709618"
         rx="6.6098609"
         ry="6.6098609" />
      <rect
         ry="6.6098609"
         rx="6.6098609"
         y="40.709618"
         x="69.839508"
         height="29.810888"
         width="29.810888"
         id="rect1654"
         style="fill:none;fill-opacity:1;stroke:#000000;stroke-width:1.2;stroke-linecap:round;stroke-linejoin:round;stroke-miterlimit:4;stroke-dasharray:none;stroke-opacity:0.02" />
      <rect
         style="fill:none;fill-opacity:1;stroke:#000000;stroke-width:1.4;stroke-linecap:round;stroke-linejoin:round;stroke-miterlimit:4;stroke-dasharray:none;stroke-opacity:0.02"
         id="rect1656"
         width="29.810888"
         height="29.810888"
         x="69.839508"
         y="40.709618"
         rx="6.6098609"
         ry="6.6098609" />
      <rect
         ry="6.6098609"
         rx="6.6098609"
         y="40.709618"
         x="69.839508"
         height="29.810888"
         width="29.810888"
         id="rect1658"
         style="fill:none;fill-opacity:1;stroke:#000000;stroke-width:1.6;stroke-linecap:round;stroke-linejoin:round;stroke-miterlimit:4;stroke-dasharray:none;stroke-opacity:0.02" />
      <rect
         style="fill:none;fill-opacity:1;stroke:#000000;stroke-width:1.8;stroke-linecap:round;stroke-linejoin:round;stroke-miterlimit:4;stroke-dasharray:none;stroke-opacity:0.02"
         id="rect1660"
         width="29.810888"
         height="29.810888"
         x="69.839508"
         y="40.709618"
         rx="6.6098609"
         ry="6.6098609" />
      <rect
         ry="6.6098609"
         rx="6.6098609"
         y="40.709618"
         x="69.839508"
         height="29.810888"
         width="29.810888"
         id="rect1662"
         style="fill:none;fill-opacity:1;stroke:#000000;stroke-width:2;stroke-linecap:round;stroke-linejoin:round;stroke-miterlimit:4;stroke-dasharray:none;stroke-opacity:0.02" />
      <rect
         style="fill:none;fill-opacity:1;stroke:#000000;stroke-width:2.2;stroke-linecap:round;stroke-linejoin:round;stroke-miterlimit:4;stroke-dasharray:none;stroke-opacity:0.02"
         id="rect1664"
         width="29.810888"
         height="29.810888"
         x="69.839508"
         y="40.709618"
         rx="6.6098609"
         ry="6.6098609" />
      <rect
         ry="6.6098609"
         rx="6.6098609"
         y="40.709618"
         x="69.839508"
         height="29.810888"
         width="29.810888"
         id="rect1666"
         style="fill:none;fill-opacity:1;stroke:#000000;stroke-width:2.6;stroke-linecap:round;stroke-linejoin:round;stroke-miterlimit:4;stroke-dasharray:none;stroke-opacity:0.02" />
      <rect
         style="fill:none;fill-opacity:1;stroke:#000000;stroke-width:3;stroke-linecap:round;stroke-linejoin:round;stroke-miterlimit:4;stroke-dasharray:none;stroke-opacity:0.02"
         id="rect1668"
         width="29.810888"
         height="29.810888"
         x="69.839508"
         y="40.709618"
         rx="6.6098609"
         ry="6.6098609" />
      <rect
         ry="6.6098609"
         rx="6.6098609"
         y="40.709618"
         x="69.839508"
         height="29.810888"
         width="29.810888"
         id="rect1670"
         style="fill:none;fill-opacity:1;stroke:#000000;stroke-width:3.4;stroke-linecap:round;stroke-linejoin:round;stroke-miterlimit:4;stroke-dasharray:none;stroke-opacity:0.02" />
      <rect
         style="fill:none;fill-opacity:1;stroke:#000000;stroke-width:3.8;stroke-linecap:round;stroke-linejoin:round;stroke-miterlimit:4;stroke-dasharray:none;stroke-opacity:0.02"
         id="rect1672"
         width="29.810888"
         height="29.810888"
         x="69.839508"
         y="40.709618"
         rx="6.6098609"
         ry="6.6098609" />
      <rect
         ry="6.6098609"
         rx="6.6098609"
         y="40.709618"
         x="69.839508"
         height="29.810888"
         width="29.810888"
         id="rect1674"
         style="fill:none;fill-opacity:1;stroke:#000000;stroke-width:4.2;stroke-linecap:round;stroke-linejoin:round;stroke-miterlimit:4;stroke-dasharray:none;stroke-opacity:0.02" />
      <rect
         style="fill:none;fill-opacity:1;stroke:#000000;stroke-width:4.6;stroke-linecap:round;stroke-linejoin:round;stroke-miterlimit:4;stroke-dasharray:none;stroke-opacity:0.02"
         id="rect1676"
         width="29.810888"
         height="29.810888"
         x="69.839508"
         y="40.709618"
         rx="6.6098609"
         ry="6.6098609" />
      <rect
         ry="6.6098609"
         rx="6.6098609"
         y="40.709618"
         x="69.839508"
         height="29.810888"
         width="29.810888"
         id="rect1678"
         style="fill:none;fill-opacity:1;stroke:#000000;stroke-width:5;stroke-linecap:round;stroke-linejoin:round;stroke-miterlimit:4;stroke-dasharray:none;stroke-opacity:0.02" />
    </g>
    <rect
       style="fill:url(#radialGradient1506);fill-opacity:1;stroke-width:2.68801;stroke-linecap:round;stroke-linejoin:round;stroke-miterlimit:4;stroke-dasharray:none"
       id="rect849"
       width="29.08744"
       height="29.08744"
       x="2.3687711"
       y="2.46527"
       rx="6.4494534"
       ry="6.4494534" />
    <rect
       ry="5.041821"
       rx="5.041821"
       y="4.4183593"
       x="4.3218613"
       height="25.181261"
       width="25.181259"
       id="rect2886"
       style="opacity:0.95;fill:url(#linearGradient2894);fill-opacity:1;stroke-width:2.68801;stroke-linecap:round;stroke-linejoin:round;stroke-miterlimit:4;stroke-dasharray:none" />
    <g
       aria-label="An"
       transform="scale(0.89573709,1.116399)"
       id="text1830"
       style="font-weight:bold;font-size:12.4003px;line-height:1.25;font-family:'SF UI  Text';-inkscape-font-specification:'SF UI  Text Bold';stroke-width:0.0620014">
      <path
         id="path8319"
         style="stroke-width:0.234336;fill-opacity:1;fill:url(#linearGradient8388)"
         d="M 46.425781 46.65625 L 36.15625 83.521484 L 42.367188 83.521484 L 44.642578 74.732422 L 55.035156 74.732422 L 57.269531 83.521484 L 63.972656 83.521484 L 53.703125 46.65625 L 46.425781 46.65625 z M 49.685547 54.320312 L 50.054688 54.320312 L 53.724609 68.78125 L 45.974609 68.78125 L 49.685547 54.320312 z M 81.601562 54.728516 C 78.280819 54.728516 75.615733 56.69531 74.570312 59.863281 L 74.201172 59.863281 L 74.201172 55.341797 L 68.421875 55.341797 L 68.421875 83.521484 L 74.386719 83.521484 L 74.386719 67.273438 C 74.386719 63.568962 76.272838 61.142578 79.224609 61.142578 C 82.053391 61.142578 83.529297 63.185042 83.529297 67.068359 L 83.529297 83.521484 L 89.494141 83.521484 L 89.494141 65.306641 C 89.494141 58.561934 86.644176 54.728516 81.601562 54.728516 z "
         transform="scale(0.29538057,0.23699711)" />
    </g>
  </g>
</svg>

<?xml version="1.0" encoding="UTF-8"?>
<svg id="svg1594" width="128" height="128" version="1.1" viewBox="0 0 33.867 33.867" xmlns="http://www.w3.org/2000/svg" xmlns:cc="http://creativecommons.org/ns#" xmlns:dc="http://purl.org/dc/elements/1.1/" xmlns:rdf="http://www.w3.org/1999/02/22-rdf-syntax-ns#" xmlns:xlink="http://www.w3.org/1999/xlink">
 <defs id="defs1588">
  <radialGradient id="radialGradient1506" cx="17.081" cy="3.8306" r="14.544" gradientTransform="matrix(4.5632 0 0 2.5461 -60.89 -5.9756)" gradientUnits="userSpaceOnUse">
   <stop id="stop4671" stop-color="#f28e13" offset="0"/>
   <stop id="stop4673" stop-color="#e53232" offset="1"/>
  </radialGradient>
  <linearGradient id="linearGradient2894" x1="16.932" x2="16.932" y1="5.8012" y2="29.238" gradientTransform="translate(-.027493 -.053315)" gradientUnits="userSpaceOnUse">
   <stop id="stop2888" stop-color="#151515" offset="0"/>
   <stop id="stop2890" stop-color="#262626" offset="1"/>
  </linearGradient>
  <linearGradient id="linearGradient8388" x1="42.121" x2="84.517" y1="51.163" y2="78.314" gradientUnits="userSpaceOnUse">
   <stop id="stop8382" stop-color="#f18715" offset="0"/>
   <stop id="stop8384" stop-color="#eb5f23" offset="1"/>
  </linearGradient>
 </defs>
 <metadata id="metadata1591">
  <rdf:RDF>
   <cc:Work rdf:about="">
    <dc:format>image/svg+xml</dc:format>
    <dc:type rdf:resource="http://purl.org/dc/dcmitype/StillImage"/>
   </cc:Work>
  </rdf:RDF>
 </metadata>
 <g id="layer1">
  <g id="g1702" transform="matrix(.97573 0 0 .97573 -65.776 -37.256)" fill="none" opacity=".295" stroke="#000" stroke-linecap="round" stroke-linejoin="round" stroke-opacity=".02">
   <rect id="rect1634" x="69.84" y="40.71" width="29.811" height="29.811" rx="6.6099" ry="6.6099" stroke-width=".1"/>
   <rect id="rect1638" x="69.84" y="40.71" width="29.811" height="29.811" rx="6.6099" ry="6.6099" stroke-width=".2"/>
   <rect id="rect1640" x="69.84" y="40.71" width="29.811" height="29.811" rx="6.6099" ry="6.6099" stroke-width=".3"/>
   <rect id="rect1642" x="69.84" y="40.71" width="29.811" height="29.811" rx="6.6099" ry="6.6099" stroke-width=".4"/>
   <rect id="rect1644" x="69.84" y="40.71" width="29.811" height="29.811" rx="6.6099" ry="6.6099" stroke-width=".5"/>
   <rect id="rect1646" x="69.84" y="40.71" width="29.811" height="29.811" rx="6.6099" ry="6.6099" stroke-width=".6"/>
   <rect id="rect1648" x="69.84" y="40.71" width="29.811" height="29.811" rx="6.6099" ry="6.6099" stroke-width=".7"/>
   <rect id="rect1650" x="69.84" y="40.71" width="29.811" height="29.811" rx="6.6099" ry="6.6099" stroke-width=".8"/>
   <rect id="rect1652" x="69.84" y="40.71" width="29.811" height="29.811" rx="6.6099" ry="6.6099"/>
   <rect id="rect1654" x="69.84" y="40.71" width="29.811" height="29.811" rx="6.6099" ry="6.6099" stroke-width="1.2"/>
   <rect id="rect1656" x="69.84" y="40.71" width="29.811" height="29.811" rx="6.6099" ry="6.6099" stroke-width="1.4"/>
   <rect id="rect1658" x="69.84" y="40.71" width="29.811" height="29.811" rx="6.6099" ry="6.6099" stroke-width="1.6"/>
   <rect id="rect1660" x="69.84" y="40.71" width="29.811" height="29.811" rx="6.6099" ry="6.6099" stroke-width="1.8"/>
   <rect id="rect1662" x="69.84" y="40.71" width="29.811" height="29.811" rx="6.6099" ry="6.6099" stroke-width="2"/>
   <rect id="rect1664" x="69.84" y="40.71" width="29.811" height="29.811" rx="6.6099" ry="6.6099" stroke-width="2.2"/>
   <rect id="rect1666" x="69.84" y="40.71" width="29.811" height="29.811" rx="6.6099" ry="6.6099" stroke-width="2.6"/>
   <rect id="rect1668" x="69.84" y="40.71" width="29.811" height="29.811" rx="6.6099" ry="6.6099" stroke-width="3"/>
   <rect id="rect1670" x="69.84" y="40.71" width="29.811" height="29.811" rx="6.6099" ry="6.6099" stroke-width="3.4"/>
   <rect id="rect1672" x="69.84" y="40.71" width="29.811" height="29.811" rx="6.6099" ry="6.6099" stroke-width="3.8"/>
   <rect id="rect1674" x="69.84" y="40.71" width="29.811" height="29.811" rx="6.6099" ry="6.6099" stroke-width="4.2"/>
   <rect id="rect1676" x="69.84" y="40.71" width="29.811" height="29.811" rx="6.6099" ry="6.6099" stroke-width="4.6"/>
   <rect id="rect1678" x="69.84" y="40.71" width="29.811" height="29.811" rx="6.6099" ry="6.6099" stroke-width="5"/>
  </g>
  <rect id="rect849" x="2.3688" y="2.4653" width="29.087" height="29.087" rx="6.4495" ry="6.4495" fill="url(#radialGradient1506)" stroke-linecap="round" stroke-linejoin="round" stroke-width="2.688"/>
  <rect id="rect2886" x="4.3219" y="4.4184" width="25.181" height="25.181" rx="5.0418" ry="5.0418" fill="url(#linearGradient2894)" opacity=".95" stroke-linecap="round" stroke-linejoin="round" stroke-width="2.688"/>
  <g id="text1830" transform="scale(.89574 1.1164)" stroke-width=".062001" aria-label="An">
   <path id="path8319" transform="scale(.29538 .237)" d="m46.426 46.656-10.27 36.865h6.2109l2.2754-8.7891h10.393l2.2344 8.7891h6.7031l-10.27-36.865h-7.2773zm3.2598 7.6641h0.36914l3.6699 14.461h-7.75l3.7109-14.461zm31.916 0.4082c-3.3207 0-5.9858 1.9668-7.0312 5.1348h-0.36914v-4.5215h-5.7793v28.18h5.9648v-16.248c0-3.7045 1.8861-6.1309 4.8379-6.1309 2.8288 0 4.3047 2.0425 4.3047 5.9258v16.453h5.9648v-18.215c0-6.7447-2.85-10.578-7.8926-10.578z" fill="url(#linearGradient8388)" stroke-width=".23434"/>
  </g>
 </g>
</svg>
